X: 30703
T: MOLOWNEY'S JIG
O: Irish Melody
%R: jig
B: Elias Howe "The Musician's Companion" Part 3 1844 p.70 #3
S: http://imslp.org/wiki/The_Musician's_Companion_(Howe,_Elias)
Z: 2015 John Chambers <jc:trillian.mit.edu>
N: Added dots to final notes in both strains, to fix the rhythms.
M: 6/8
L: 1/8
K: D
% - - - - - - - - - - - - - - - - - - - - - - - - -
|:\
FGA AFD | AFD AFD | GBG FAF | BGE E2e |\
ecA AcA | ecA AcA | (dc)d Bcd | AFD D3 :|
|:\
ecA AcA | ecA d2A | GBG FAF | BGE E2e |\
ecA AcA | ecA AcA | dcd Bcd | AFD D3 :|
% - - - - - - - - - - - - - - - - - - - - - - - - -
